dist/assets/images/icons/reshaping.svg

<svg width="50" height="50" viewBox="0 0 50 50" fill="none" xmlns="http://www.w3.org/2000/svg">
<rect width="50" height="50" fill="#0096F2"/>
<path opacity="0.7" d="M25 13C18.3833 13 13 18.3838 13 25C13 31.6265 18.3735 37 25 37C31.6167 37 37 31.6167 37 25C37 18.3729 31.6271 13 25 13ZM25 31.0577C23.5617 31.0577 22.1823 30.4863 21.1653 29.4693C20.1483 28.4523 19.5769 27.0729 19.5769 25.6346C19.5769 24.1963 20.1483 22.8169 21.1653 21.7999C22.1823 20.7829 23.5617 20.2115 25 20.2115H25.2429L24.4288 19.3981C24.2774 19.2466 24.1923 19.0411 24.1923 18.8269C24.1923 18.6127 24.2774 18.4072 24.4288 18.2558C24.5803 18.1043 24.7858 18.0192 25 18.0192C25.2142 18.0192 25.4197 18.1043 25.5712 18.2558L27.8788 20.5635C27.9539 20.6385 28.0134 20.7275 28.054 20.8255C28.0945 20.9235 28.1154 21.0285 28.1154 21.1346C28.1154 21.2407 28.0945 21.3457 28.054 21.4437C28.0134 21.5417 27.9539 21.6308 27.8788 21.7058L25.5712 24.0135C25.4197 24.1649 25.2142 24.25 25 24.25C24.7858 24.25 24.5803 24.1649 24.4288 24.0135C24.2774 23.862 24.1923 23.6565 24.1923 23.4423C24.1923 23.2281 24.2774 23.0226 24.4288 22.8712L25.4673 21.8327C25.33 21.8269 25.1731 21.8269 25 21.8269C24.2469 21.8269 23.5107 22.0502 22.8846 22.4686C22.2584 22.887 21.7703 23.4817 21.4822 24.1775C21.194 24.8732 21.1186 25.6388 21.2655 26.3775C21.4124 27.1161 21.775 27.7945 22.3076 28.3271C22.8401 28.8596 23.5185 29.2222 24.2572 29.3691C24.9958 29.5161 25.7614 29.4407 26.4571 29.1525C27.1529 28.8643 27.7476 28.3762 28.166 27.7501C28.5844 27.1239 28.8077 26.3877 28.8077 25.6346C28.8077 25.4204 28.8928 25.215 29.0443 25.0635C29.1957 24.912 29.4012 24.8269 29.6154 24.8269C29.8296 24.8269 30.035 24.912 30.1865 25.0635C30.338 25.215 30.4231 25.4204 30.4231 25.6346C30.4214 27.0724 29.8495 28.4508 28.8328 29.4675C27.8162 30.4841 26.4378 31.056 25 31.0577Z" fill="white"/>
</svg>

<svg width="50" height="50" fill="none" xmlns="http://www.w3.org/2000/svg"><path fill="#0096F2" d="M0 0h50v50H0z"/><path opacity=".7" d="M25 13c-6.617 0-12 5.384-12 12 0 6.627 5.373 12 12 12 6.617 0 12-5.383 12-12 0-6.627-5.373-12-12-12zm0 18.058a5.423 5.423 0 010-10.846h.243l-.814-.814a.808.808 0 011.142-1.142l2.308 2.308a.806.806 0 010 1.142l-2.308 2.308a.808.808 0 01-1.142-1.143l1.038-1.038c-.137-.006-.294-.006-.467-.006a3.807 3.807 0 103.808 3.808.808.808 0 011.615 0A5.43 5.43 0 0125 31.058z" fill="#fff"/></svg>
